X: 21441
M: 2/4
L: 1/16
K: C
V: 1 name="1"
ef |\
g2g2 d2d2 | e3f g2fd | c2Bc d2cd | e2^fg d2e=f |\
g2g2 d2d2 | e3f g2fd | c2ec G2AB | c2[e2c2]c2 H|]
ef |\
g2g2 a2fd | e3e f2dB | c2c2 Bcde | de^fg G2e=f |\
g2g2 a2fd | e2e2 f2dB | cedf eg^fa | g2g2"^D.C."g2 |]
(3(G,A,B,) |\


